X: 9821
T: Denis O'Brien's
R: reel
M: 4/4
K: Gmajor
~G3B ~d2Bd|edgd edge|~d3e ~d2BG|~A2BA G~E2D|
~G3B ~d2Bd|edge dega|bgaf gede|gedB ~A2GA||
BFAF ~E3D|BDGF EGFE|F~B2A BG~E2|FAdB AFDF:|

